X:17
T:Irish Vauxhall. VWMLa.017
%%VWML:Anon2-3049-p12-0
F:http://www.vwml.org/record/Anon2/3049/p12
S:Anon. MS, late 18thC, Vaughan Williams Mem. Library
O:England;Yorkshire
Z:vmp/efdss.Simon Wilson. Reviewed PJH 2008.
M:C|
L:1/8
Q:1/4=120
K:D
d2(f/e/d/c/) dA2d|efga {g}fe/f/ .d.d|\
fgab efga|de/f/ gf{f}e4:|
|:a2(b/a/g/f/) ge2f|g2(a/g/f/e/) fd2e|\
(f/g/a/f/) (e/f/g/e/) (f/g/a/f/) (e/f/g/e/)|fdAc d2D2:|
T:Eight Men of Moyder. VWMLa.018
T:Eight Men/Maids of Moidart,aka. VWMLa.018
R:Reel
S:Anon. MS, late 18thC, Vaughan Williams Mem. Library
O:England;Yorkshire
Z:vmp/efdss.Simon Wilson. Reviewed PJH 2008.
M:C|
L:1/8
Q:2/4=80
K:F
A|Ff2c A2Fc|(A/B/c) Fc AG- Gf/g/|\
a/g/f/e/ fcA2Fc|(A/B/c) GB AFF:|
|:c/B/|AFcF dFcF|AFcF d/c/B/A/ Gc|\
AFcF dFcF|(A/B/c) GBAF F:|
